backend/skills_projects/skills/images/docker/docker-64.svg

<svg xmlns="http://www.w3.org/2000/svg"  viewBox="0 0 64 64" width="64px" height="64px"><path d="M 27 7 C 26.45 7 26 7.45 26 8 L 26 15 L 11 15 C 10.45 15 10 15.45 10 16 L 10 23 L 3 23 C 2.45 23 2 23.45 2 24 L 2 31 L 1.3222656 31 C 0.85526562 31 0.44970312 31.323297 0.34570312 31.779297 C 0.27070312 32.112297 -1.4381406 40.00275 3.3808594 46.59375 C 6.8728594 51.36875 12.830891 54.151328 21.087891 54.861328 C 22.169891 54.955328 23.215375 55 24.234375 55 C 44.171375 55 52.165937 37.927219 53.710938 34.074219 C 61.550937 34.701219 63.915453 28.400938 63.939453 28.335938 C 64.079453 27.946938 63.964391 27.510234 63.650391 27.240234 C 60.571391 24.590234 57.539125 24.542406 55.453125 25.191406 C 55.664125 20.610406 50.856094 17.327922 50.621094 17.169922 C 50.400094 17.020922 50.128141 16.966531 49.869141 17.019531 C 49.608141 17.071531 49.379422 17.223312 49.232422 17.445312 C 45.145422 23.602313 46.785531 28.081031 47.769531 29.832031 C 46.189531 31.033031 44.148656 31.003 44.097656 31 L 44 31 L 44 24 C 44 23.45 43.55 23 43 23 L 36 23 L 36 8 C 36 7.45 35.55 7 35 7 L 27 7 z M 28 9 L 34 9 L 34 15 L 28 15 L 28 9 z M 12 17 L 26 17 L 26 23 L 20 23 L 20 20 C 20 19.448 19.552 19 19 19 C 18.448 19 18 19.448 18 20 L 18 23 L 12 23 L 12 17 z M 28 17 L 34 17 L 34 31 L 28 31 L 28 25 L 31 25 C 31.55 25 32 24.55 32 24 C 32 23.45 31.55 23 31 23 L 28 23 L 28 17 z M 50.330078 19.46875 C 51.743078 20.68275 54.371187 23.476906 53.117188 26.628906 C 52.951188 27.045906 53.086359 27.520969 53.443359 27.792969 C 53.800359 28.064969 54.29925 28.062016 54.65625 27.791016 C 54.79225 27.688016 57.877766 25.416109 61.759766 28.287109 C 60.996766 29.666109 58.648547 32.739812 53.185547 32.007812 C 52.702547 31.942812 52.251562 32.228547 52.101562 32.685547 C 52.031563 32.898547 45.162937 53.000047 24.210938 52.998047 C 23.257938 52.997047 22.271766 52.956141 21.259766 52.869141 C 13.613766 52.211141 8.1458125 49.707687 5.0078125 45.429688 C 1.5458125 40.709688 1.8979219 35.043 2.1699219 33 L 3 33 L 43 33 C 43.006908 33 43.012655 32.996235 43.019531 32.996094 L 44.068359 32.996094 C 44.215359 33.002094 47.577641 33.075734 49.806641 30.677734 C 50.148641 30.310734 50.16375 29.746375 49.84375 29.359375 C 49.81075 29.320375 46.803078 25.56075 50.330078 19.46875 z M 4 25 L 10 25 L 10 31 L 4 31 L 4 25 z M 12 25 L 18 25 L 18 31 L 12 31 L 12 25 z M 20 25 L 26 25 L 26 31 L 20 31 L 20 25 z M 36 25 L 42 25 L 42 31 L 36 31 L 36 25 z M 12.5 38 A 2.5 2.5 0 0 0 12.5 43 A 2.5 2.5 0 0 0 12.5 38 z M 42.287109 38.509766 C 42.031984 38.531016 41.783969 38.649375 41.605469 38.859375 C 41.248469 39.281375 41.301656 39.912531 41.722656 40.269531 L 43.246094 41.564453 C 43.434094 41.723453 43.663578 41.800781 43.892578 41.800781 C 44.176578 41.800781 44.45725 41.680266 44.65625 41.447266 C 45.01325 41.025266 44.962016 40.394109 44.541016 40.037109 L 43.015625 38.744141 C 42.804625 38.565141 42.542234 38.488516 42.287109 38.509766 z M 39.009766 41.908203 C 38.755266 41.881578 38.491344 41.952953 38.277344 42.126953 C 37.848344 42.473953 37.782859 43.10225 38.130859 43.53125 L 39.388672 45.085938 C 39.585672 45.330938 39.875016 45.457031 40.166016 45.457031 C 40.387016 45.457031 40.608922 45.383422 40.794922 45.232422 C 41.223922 44.885422 41.289406 44.255172 40.941406 43.826172 L 39.683594 42.273438 C 39.509594 42.058937 39.264266 41.934828 39.009766 41.908203 z M 34.794922 44.539062 C 34.665375 44.54825 34.535109 44.583484 34.412109 44.646484 C 33.919109 44.897484 33.724609 45.500188 33.974609 45.992188 L 34.882812 47.775391 C 35.058813 48.121391 35.409438 48.320312 35.773438 48.320312 C 35.926437 48.320313 36.081563 48.285891 36.226562 48.212891 C 36.719563 47.961891 36.914062 47.359187 36.664062 46.867188 L 35.757812 45.085938 C 35.569563 44.716938 35.183563 44.5115 34.794922 44.539062 z M 30.505859 46.246094 C 30.377422 46.226922 30.242875 46.233328 30.109375 46.267578 C 29.574375 46.405578 29.254578 46.949375 29.392578 47.484375 L 29.892578 49.421875 C 30.009578 49.872875 30.414375 50.171875 30.859375 50.171875 C 30.942375 50.171875 31.026375 50.162625 31.109375 50.140625 C 31.644375 50.002625 31.966125 49.456875 31.828125 48.921875 L 31.328125 46.984375 C 31.224625 46.583875 30.891172 46.303609 30.505859 46.246094 z M 25.53125 46.951172 C 24.97925 46.979172 24.555984 47.448 24.583984 48 L 24.685547 49.998047 C 24.712547 50.532047 25.154594 50.947266 25.683594 50.947266 C 25.700594 50.947266 25.717375 50.945312 25.734375 50.945312 C 26.286375 50.917312 26.711594 50.448484 26.683594 49.896484 L 26.580078 47.898438 C 26.552078 47.346438 26.07325 46.926172 25.53125 46.951172 z"/></svg>

<svg xmlns="http://www.w3.org/2000/svg" xmlns:xlink="http://www.w3.org/1999/xlink" viewBox="0,0,256,256" width="64px" height="64px"><g fill="#757575" fill-rule="nonzero" stroke="none" stroke-width="1" stroke-linecap="butt" stroke-linejoin="miter" stroke-miterlimit="10" stroke-dasharray="" stroke-dashoffset="0" font-family="none" font-weight="none" font-size="none" text-anchor="none" style="mix-blend-mode: normal"><path d="M0,256v-256h256v256z" id="bgRectangle"></path></g><g fill="#000000" fill-rule="nonzero" stroke="none" stroke-width="1" stroke-linecap="butt" stroke-linejoin="miter" stroke-miterlimit="10" stroke-dasharray="" stroke-dashoffset="0" font-family="none" font-weight="none" font-size="none" text-anchor="none" style="mix-blend-mode: normal"><g transform="scale(4,4)"><path d="M27,7c-0.55,0 -1,0.45 -1,1v7h-15c-0.55,0 -1,0.45 -1,1v7h-7c-0.55,0 -1,0.45 -1,1v7h-0.67773c-0.467,0 -0.87256,0.3233 -0.97656,0.7793c-0.075,0.333 -1.78384,8.22345 3.03516,14.81445c3.492,4.775 9.45003,7.55758 17.70703,8.26758c1.082,0.094 2.12748,0.13867 3.14648,0.13867c19.937,0 27.93156,-17.07278 29.47656,-20.92578c7.84,0.627 10.20452,-5.67328 10.22852,-5.73828c0.14,-0.389 0.02494,-0.8257 -0.28906,-1.0957c-3.079,-2.65 -6.11127,-2.69783 -8.19727,-2.04883c0.211,-4.581 -4.59703,-7.86348 -4.83203,-8.02148c-0.221,-0.149 -0.49295,-0.20339 -0.75195,-0.15039c-0.261,0.052 -0.48972,0.20378 -0.63672,0.42578c-4.087,6.157 -2.44689,10.63572 -1.46289,12.38672c-1.58,1.201 -3.62087,1.17097 -3.67187,1.16797h-0.09766v-7c0,-0.55 -0.45,-1 -1,-1h-7v-15c0,-0.55 -0.45,-1 -1,-1zM28,9h6v6h-6zM12,17h14v6h-6v-3c0,-0.552 -0.448,-1 -1,-1c-0.552,0 -1,0.448 -1,1v3h-6zM28,17h6v14h-6v-6h3c0.55,0 1,-0.45 1,-1c0,-0.55 -0.45,-1 -1,-1h-3zM50.33008,19.46875c1.413,1.214 4.04111,4.00816 2.78711,7.16016c-0.166,0.417 -0.03083,0.89206 0.32617,1.16406c0.357,0.272 0.85589,0.26905 1.21289,-0.00195c0.136,-0.103 3.22152,-2.37491 7.10352,0.49609c-0.763,1.379 -3.11122,4.4527 -8.57422,3.7207c-0.483,-0.065 -0.93398,0.22073 -1.08398,0.67773c-0.07,0.213 -6.93863,20.3145 -27.89062,20.3125c-0.953,-0.001 -1.93917,-0.04191 -2.95117,-0.12891c-7.646,-0.658 -13.11395,-3.16145 -16.25195,-7.43945c-3.462,-4.72 -3.10989,-10.38669 -2.83789,-12.42969h0.83008h40c0.00691,0 0.01266,-0.00377 0.01953,-0.00391h1.04883c0.147,0.006 3.50928,0.07964 5.73828,-2.31836c0.342,-0.367 0.35711,-0.93136 0.03711,-1.31836c-0.033,-0.039 -3.04067,-3.79863 0.48633,-9.89062zM4,25h6v6h-6zM12,25h6v6h-6zM20,25h6v6h-6zM36,25h6v6h-6zM12.5,38c-1.38071,0 -2.5,1.11929 -2.5,2.5c0,1.38071 1.11929,2.5 2.5,2.5c1.38071,0 2.5,-1.11929 2.5,-2.5c0,-1.38071 -1.11929,-2.5 -2.5,-2.5zM42.28711,38.50977c-0.25512,0.02125 -0.50314,0.13961 -0.68164,0.34961c-0.357,0.422 -0.30381,1.05316 0.11719,1.41016l1.52344,1.29492c0.188,0.159 0.41748,0.23633 0.64648,0.23633c0.284,0 0.56467,-0.12051 0.76367,-0.35352c0.357,-0.422 0.30577,-1.05316 -0.11523,-1.41016l-1.52539,-1.29297c-0.211,-0.179 -0.47339,-0.25563 -0.72852,-0.23437zM39.00977,41.9082c-0.2545,-0.02663 -0.51842,0.04475 -0.73242,0.21875c-0.429,0.347 -0.49448,0.9753 -0.14648,1.4043l1.25781,1.55469c0.197,0.245 0.48634,0.37109 0.77734,0.37109c0.221,0 0.44291,-0.07361 0.62891,-0.22461c0.429,-0.347 0.49448,-0.97725 0.14648,-1.40625l-1.25781,-1.55273c-0.174,-0.2145 -0.41933,-0.33861 -0.67383,-0.36523zM34.79492,44.53906c-0.12955,0.00919 -0.25981,0.04442 -0.38281,0.10742c-0.493,0.251 -0.6875,0.8537 -0.4375,1.3457l0.9082,1.7832c0.176,0.346 0.52663,0.54492 0.89063,0.54492c0.153,0 0.30813,-0.03442 0.45312,-0.10742c0.493,-0.251 0.6875,-0.8537 0.4375,-1.3457l-0.90625,-1.78125c-0.18825,-0.369 -0.57425,-0.57444 -0.96289,-0.54688zM30.50586,46.24609c-0.12844,-0.01917 -0.26298,-0.01277 -0.39648,0.02148c-0.535,0.138 -0.8548,0.6818 -0.7168,1.2168l0.5,1.9375c0.117,0.451 0.5218,0.75 0.9668,0.75c0.083,0 0.167,-0.00925 0.25,-0.03125c0.535,-0.138 0.85675,-0.68375 0.71875,-1.21875l-0.5,-1.9375c-0.1035,-0.4005 -0.43695,-0.68077 -0.82227,-0.73828zM25.53125,46.95117c-0.552,0.028 -0.97527,0.49683 -0.94727,1.04883l0.10156,1.99805c0.027,0.534 0.46905,0.94922 0.99805,0.94922c0.017,0 0.03378,-0.00195 0.05078,-0.00195c0.552,-0.028 0.97722,-0.49683 0.94922,-1.04883l-0.10352,-1.99805c-0.028,-0.552 -0.50683,-0.97227 -1.04883,-0.94727z"></path></g></g></svg>
